themes/RogersHood-theme/dist/images/caret-down.svg

<svg width="11" height="6" viewBox="0 0 11 6" fill="none" xmlns="http://www.w3.org/2000/svg">
<path d="M5.00781 5.74999C4.94224 5.75079 4.87722 5.73786 4.81694 5.71202C4.75666 5.68619 4.70246 5.64803 4.65781 5.59999L0.157813 1.09999C-0.0421875 0.89999 -0.0421875 0.58999 0.157813 0.38999C0.357813 0.18999 0.667812 0.18999 0.867812 0.38999L5.01781 4.53999L9.15781 0.39999C9.35781 0.19999 9.66781 0.19999 9.86781 0.39999C10.0678 0.59999 10.0678 0.90999 9.86781 1.10999L5.36781 5.60999C5.26781 5.70999 5.13781 5.75999 5.01781 5.75999L5.00781 5.74999Z" fill="black"/>
</svg>

<svg xmlns="http://www.w3.org/2000/svg" width="11" height="6" fill="none" viewBox="0 0 11 6"><path fill="#000" d="M5.008 5.75a.47.47 0 0 1-.35-.15l-4.5-4.5c-.2-.2-.2-.51 0-.71s.51-.2.71 0l4.15 4.15L9.158.4c.2-.2.51-.2.71 0s.2.51 0 .71l-4.5 4.5c-.1.1-.23.15-.35.15z"/></svg>
